X: 1
T:Polska fr Boda (Vod\"ospisn)
R:Polska
O:Sweden
M:3/4
C:e. R\"oj\aa{}s Erik Andersson
A:Dalarna
K:Am
G|\
A>c (e2 e)c|d>f e>c A>B|\
(3cdc B>^G E>G|"tr"B2 A<B c>B|
A>c (e2 e)c|d>f e>c A>B|\
(3cdc B>^G E>G|"tr"B2 A3::
[K:D]f|\
a2 f4|(3fef g>f e>g|b2g4|(3gfg a>g f>g|
a2f4|(3fef g>f e>d|(3c2e2g2 b>g|e<c d3:|
